X:35
T:The Laird of Cockpen
Z:Jack Campin, http://www.campin.me.uk/
F:Jack Campin's Nine-Note Tunebook
% last edit 03-02-2013
M:6/8
L:1/8
Q:3/8=72
K:DMin
A|D>ED F2 F|E>CC C2E   |D>ED d2d|c>AA A2
B|cFA  c>BA|G>AF E2F/G/|A>BA A2G|F>DD D2|]

